icons/svg/table-edit.svg

﻿<?xml version="1.0" encoding="utf-8"?>
<!DOCTYPE svg PUBLIC "-//W3C//DTD SVG 1.1//EN" "http://www.w3.org/Graphics/SVG/1.1/DTD/svg11.dtd">
<svg xmlns="http://www.w3.org/2000/svg" xmlns:xlink="http://www.w3.org/1999/xlink" version="1.1" baseProfile="full" width="24" height="24" viewBox="0 0 24.00 24.00" enable-background="new 0 0 24.00 24.00" xml:space="preserve">
	<path fill="#000000" fill-opacity="1" stroke-width="0.2" stroke-linejoin="round" d="M 21.7036,13.3507L 20.7001,14.3543L 18.6458,12.3L 19.6494,11.2964C 19.8636,11.0822 20.2103,11.0822 20.424,11.2964L 21.7036,12.5761C 21.9178,12.7897 21.9178,13.1365 21.7036,13.3507 Z M 12.0036,18.9421L 18.0651,12.8807L 20.1194,14.9349L 14.0579,20.9964L 12.0036,20.9964L 12.0036,18.9421 Z M 4,2.00001L 18,2.00001C 19.1046,2.00001 20,2.89543 20,4L 20,8.17158L 16.1716,12L 12,12L 12,16.1716L 10.1716,18L 4,18C 2.89544,18 2,17.1046 2,16L 2,4C 2,2.89543 2.89544,2.00001 4,2.00001 Z M 4,6.00001L 4,10L 10,10L 10,6.00001L 4,6.00001 Z M 12,6.00001L 12,10L 18,10L 18,6.00001L 12,6.00001 Z M 4,12L 4,16L 10,16L 10,12L 4,12 Z "/>
</svg>

<svg xmlns="http://www.w3.org/2000/svg" version="1.1" baseProfile="full" width="24" height="24" viewBox="0 0 24.00 24.00" xml:space="preserve"><path fill="#000" fill-opacity="1" stroke-width=".2" stroke-linejoin="round" d="M21.704 13.35L20.7 14.355 18.646 12.3l1.003-1.004c.214-.214.56-.214.774 0l1.28 1.28c.214.214.214.56 0 .775zm-9.7 5.592l6.06-6.06 2.055 2.053-6.062 6.06h-2.054v-2.053zM4 2h14c1.105 0 2 .895 2 2v4.172L16.172 12H12v4.172L10.172 18H4c-1.105 0-2-.895-2-2V4c0-1.105.895-2 2-2zm0 4v4h6V6H4zm8 0v4h6V6h-6zm-8 6v4h6v-4H4z"/></svg>
